X:1
T:Title
%%score { ( 1 4 ) | ( 2 3 ) }
L:1/8
M:4/4
K:G
V:1 treble nm="Grand Piano"
V:4 treble 
V:2 bass 
V:3 bass 
V:1
 z4 z2[Q:1/4=100] [DB]>[CA] | [B,G]>[A,F] [B,G]>[CA] [B,G]2 [B,G]>[DF] | %2
 [CE]>[EG] [DF]>[CE] [B,D]2 [B,G]>[CA] | [DB]>[B,G] [Ec]>[DB] [DA]>[DG] [CF]>[B,G] | %4
 [DA]6 [DB]>[CA] | [B,G]>[A,F] [B,G]>[CA] [B,G]2 [G,B,G]>[G,DF] | %6
 [G,CE]>[G,EG] [G,DF]>[G,CE] [B,D]2 [G,DG]>[EA] | B>B B>G B2 A>A |[M:3/4] [G,B,G]6 |[M:1/4] (3dBe | %10
[M:4/4] d4 B2 z2 | B4 G2 z2 | [FA]>[FA] [FA]>[GB] [Ac]>[ce] [Bd]>[Ac] | [GB]6 z2 | d4 B2 z2 | %15
 B4 G2 z2 | [FA]>[FA] [FA]>[GB] [Ac]>[Ac] [GB]>[DA] |[M:3/4] [G,G]2- [G,-EG-]>[G,-EG-] [G,DG]2 |] %18
V:2
 z4 z2 [G,,G,]>[G,,G,] | [G,,D,]>[G,,D,] [G,,D,]>[G,,D,] [G,,D,]2 [G,,G,]>[B,,G,] | %2
 [C,G,]>[C,G,] [C,G,]>[C,G,] [G,,G,]2 [G,,G,]>[G,,G,] | %3
 [G,,G,]>[G,,G,] [G,,G,]>[G,,G,] [C,F,]>[B,,D,] [A,,D,]>[G,,D,] | [D,F,]6 [G,,G,]>[G,,G,] | %5
 [G,,D,]>[G,,D,] [G,,D,]>[G,,D,] [G,,D,]2 G,,>B,, | C,>C, C,>C, G,2 B,,>[C,G,] | %7
 [D,G,D]>[D,G,D] [D,G,D]>[D,G,B,] [D,G,D]2 C>C |[M:3/4] G,,6 |[M:1/4] z2 | %10
[M:4/4] z2[K:treble] (3[G,B,][G,B,][G,B,] [G,DG]>[G,D] z2 | %11
 z2[K:bass] (3[G,D][G,D][G,D] [G,B,D]>[G,B,] [G,B,D]>[G,B,D] | %12
 [D,D]>[D,D] [D,D]>[D,D] [D,D]>[D,D] [D,D]>[D,D] | [G,D]2 G,>G, G,2 z2 | %14
 z2[K:treble] (3[G,B,][G,B,][G,B,] [G,DG]>[G,D] z2 | %15
 z2[K:bass] (3[G,D][G,D][G,D] [G,B,D]>[G,B,] [G,B,D]>[G,B,D] | %16
 [D,D]>[D,D] [D,D]>[D,D] [D,D]>[D,D] [D,D]>D, |[M:3/4] z2 C>C B,2 |] %18
V:3
 x8 | x8 | x8 | x8 | x8 | x8 | x8 | z4 z2 [D,F,]2 |[M:3/4] x6 |[M:1/4] x2 | %10
[M:4/4] x2[K:treble] x6 | x2[K:bass] x6 | x8 | x8 | x2[K:treble] x6 | x2[K:bass] x6 | x8 | %17
[M:3/4] G,,6 |] %18
V:4
 x8 | x8 | x8 | x8 | x8 | x8 | x8 | x8 |[M:3/4] x6 |[M:1/4] x2 |[M:4/4] z2 (3GGG z z/ G/ (3BGc | %11
 z2 (3GGG z z/ D/ G>G | x8 | z2 D>D D2 (3dBe | z2 (3GGG z z/ G/ (3BGc | z2 (3GGG z z/ D/ G>G | x8 | %17
[M:3/4] [B,D]2 z2 z2 |] %18

